TF1/histpfunc.svg

<svg xmlns="http://www.w3.org/2000/svg" viewBox="0 0 1200 800" preserveAspectRatio="none" width="1200" height="800">
 <path d="M0,0H1200V800H0Z" style="fill: white;"></path>
 <g>
  <g transform="translate(120,80)">
   <path d="M0,0H960V640H0Z" style="fill: white; stroke: black; stroke-width: 1;"></path>
   <svg x="0" y="0" overflow="hidden" width="960" height="640" viewBox="0 0 960 640">
    <g>
     <path d="M0,415h5v-4h5v39h4v-46h5v21h5v11h5v-18h5v-46h4v64h5v-60h5v14h5v56h5v-10h4v10h5v-7h5v-35h5v-53h5v120h4v-42h5v49h5v-74h5v99h5v-57h4v-35h5v85h5v-43h5v11h5v46h4v-46h5v46h5v-14h5v-29h5v21h9v46h5v-35h5v-11h5v22h4v21h5v-57h5v-14h5v25h5v-18h4v25h5v18h5v35h5v-60h5v28h4v-46h5v36h5v-53h5v10h5v57h4v-64h5v39h5v-56h5v3h5v39h4v-74h5v-25h5v-28h5v123h5v-63h9v-81h5v-28h5v35h5v-35h4v10h5v-81h5v36h10v-46h4v-32h5v11h5v-113h5v148h5v-53h4v-106h5v67h5v28h5v-141h5v117h4v-67h5v10h5v57h5v-64h5v4h4v28h5v11h5v-29h5v120h5v35h4v-112h5v17h5v-24h5v56h5v56h4v-24h5v24h5v-3h5v14h5v32h4v53h5v-29h5v-14h5v57h5v-32h4v60h5v21h5v35h5v-7h5v4h4v56h5v-35h5v28h5v32h5v-29h4v46h5v11h5v-7h5v24h5v8h4v-15h5v29h5v-29h5v36h5v-25h4v11h5v21h10v17h5v-17h4v7h5v-11h5v11h5v7h5v-14h4v-4h5v25h5v-32h5v11h5v17h4v-14h5v14h5v-3h10v-7h4v24h5v-14h5v-7h5v-7h5v4h4v7h5v-50h5v60h5v-28h5v11h4v10h10v7h5v-14h9v11h5v-18h5v7h5v21h5v-7h4v-7h5v4h5v3h5v-7h5v14h4v-3h10v-4h5v4h5v-4h4v-3h5v17h5v-3h14v7h5v-7h5v3h5v4h5v-4h4v4h5v-7h5v3h5v4h5v-4h4v-3h10v-4h14v-10h5v14h5L960,643H0Z" style="stroke-linejoin: miter; stroke: #00009a; stroke-width: 1; fill: #c08378;"></path>
    </g>
    <g>
     <path d="M9.6,569.65C11.2,569.71,16.01,569.84,19.2,570S25.62,570.35,28.8,570.58S35.23,571.08,38.4,571.38S44.84,572.03,48,572.4S54.46,573.19,57.6,573.62S64.08,574.55,67.2,575.04S73.7,576.1,76.8,576.65S83.31,577.82,86.4,578.41S92.93,579.69,96,580.31S102.54,581.68,105.6,582.33S112.15,583.76,115.2,584.43S121.75,585.89,124.8,586.57S131.35,588.05,134.4,588.72S140.94,590.17,144,590.82S150.52,592.2,153.6,592.81S160.1,594.09,163.2,594.64S169.67,595.77,172.8,596.24S179.24,597.16,182.4,597.52S188.82,598.2,192,598.43S198.4,598.83,201.6,598.87S208,598.86,211.2,598.76S217.64,598.4,220.8,598.05S227.3,597.22,230.4,596.66S237,595.32,240,594.54S246.73,592.63,249.6,591.65S256.48,589.13,259.2,587.98S266.24,584.83,268.8,583.55S275.99,579.77,278.4,578.39S285.72,574.02,288,572.58S295.69,567.78,297.6,566.21S305.71,558.44,307.2,556.85S315.43,547.21,316.8,545.63S324.98,536.24,326.4,534.65S334.5,525.71,336,524.11S343.97,515.85,345.6,514.25S353.39,506.87,355.2,505.29S362.76,498.96,364.8,497.42S372.06,492.27,374.4,490.85S381.34,486.94,384,485.74S390.64,483.04,393.6,482.2S400.01,480.48,403.2,480.33S409.6,480.06,412.8,480.15S419.38,480.93,422.4,481.66S429.25,483.67,432,484.78S439.15,488.05,441.6,489.41S449.02,493.91,451.2,495.4S458.85,501.01,460.8,502.57S468.61,509.14,470.4,510.73S478.33,518.04,480,519.64S488,527.49,489.6,529.09S497.64,537.25,499.2,538.85S507.24,547.12,508.8,548.72S516.81,556.91,518.4,558.51S526.36,566.45,528,568.05S535.88,575.6,537.6,577.2S545.38,584.26,547.2,585.85S554.86,592.35,556.8,593.92S564.33,599.82,566.4,601.35S573.79,606.63,576,608.11S583.25,612.79,585.6,614.2S592.67,618.33,595.2,619.63S601.92,623.09,604.8,624.05S611.31,625.49,614.4,626.06S620.86,627.16,624,627.61S630.43,628.43,633.6,628.76S640.02,629.35,643.2,629.58S649.61,629.98,652.8,630.13S659.2,630.38,662.4,630.47S668.8,630.6,672,630.65S678.4,630.72,681.6,630.72S688,630.72,691.2,630.72S697.6,630.69,700.8,630.68S707.2,630.65,710.4,630.64S716.8,630.61,720,630.61S726.4,630.61,729.6,630.62S736,630.64,739.2,630.67S745.6,630.73,748.8,630.78S755.2,630.88,758.4,630.95S764.8,631.1,768,631.19S774.4,631.39,777.6,631.5S784.01,631.74,787.2,631.87S793.61,632.16,796.8,632.31S803.21,632.64,806.4,632.81S812.81,633.18,816,633.37S822.41,633.77,825.6,633.97S832.02,634.4,835.2,634.63S841.62,635.08,844.8,635.31S851.22,635.79,854.4,636.03S860.82,636.52,864,636.77S870.42,637.28,873.6,637.53S880.02,638.04,883.2,638.29S889.62,638.8,892.8,639.06S899.2,639.75,902.4,639.81S908.81,639.62,912,639.44S918.42,638.96,921.6,638.72S928.02,638.25,931.2,638.03S937.61,637.58,940.8,637.36S947.21,636.94,950.4,636.74S958.41,636.26,960,636.17" style="fill: none; stroke: blue; stroke-width: 6;"></path>
    </g>
   </svg>
   <g>
    <g transform="translate(0,640)">
     <path d="M0,0h960M0,-24v24m19,-12v12m19,-12v12m20,-12v12m19,-12v12m19,-24v24m19,-12v12m19,-12v12m20,-12v12m19,-12v12m19,-24v24m19,-12v12m19,-12v12m20,-12v12m19,-12v12m19,-24v24m19,-12v12m19,-12v12m20,-12v12m19,-12v12m19,-24v24m19,-12v12m19,-12v12m20,-12v12m19,-12v12m19,-24v24m19,-12v12m19,-12v12m20,-12v12m19,-12v12m19,-24v24m19,-12v12m19,-12v12m20,-12v12m19,-12v12m19,-24v24m19,-12v12m19,-12v12m20,-12v12m19,-12v12m19,-24v24m19,-12v12m19,-12v12m20,-12v12m19,-12v12m19,-24v24m19,-12v12m19,-12v12m20,-12v12m19,-12v12m19,-24v24" style="stroke: black; stroke-width: 1;"></path>
     <g font-family="Arial" font-size="28" space="preserve" fill="black" text-anchor="middle">
      <text dy=".8em" transform="translate(0,6)">
       0
      </text>
      <text dy=".8em" transform="translate(96,6)">
       1
      </text>
      <text dy=".8em" transform="translate(192,6)">
       2
      </text>
      <text dy=".8em" transform="translate(288,6)">
       3
      </text>
      <text dy=".8em" transform="translate(384,6)">
       4
      </text>
      <text dy=".8em" transform="translate(480,6)">
       5
      </text>
      <text dy=".8em" transform="translate(576,6)">
       6
      </text>
      <text dy=".8em" transform="translate(672,6)">
       7
      </text>
      <text dy=".8em" transform="translate(768,6)">
       8
      </text>
      <text dy=".8em" transform="translate(864,6)">
       9
      </text>
      <text dy=".8em" transform="translate(960,6)">
       10
      </text>
     </g>
    </g>
    <g>
     <path d="M0,0v640M36,640h-36m18,-18h-18m18,-17h-18m18,-18h-18m36,-17h-36m18,-18h-18m18,-18h-18m18,-17h-18m36,-18h-36m18,-18h-18m18,-17h-18m18,-18h-18m36,-17h-36m18,-18h-18m18,-18h-18m18,-17h-18m36,-18h-36m18,-17h-18m18,-18h-18m18,-18h-18m36,-17h-36m18,-18h-18m18,-18h-18m18,-17h-18m36,-18h-36m18,-17h-18m18,-18h-18m18,-18h-18m36,-17h-36m18,-18h-18m18,-17h-18m18,-18h-18m36,-18h-36m18,-17h-18m18,-18h-18m18,-18h-18m36,-17h-36" style="stroke: black; stroke-width: 1;"></path>
     <g font-family="Arial" font-size="28" space="preserve" fill="black" text-anchor="end">
      <text dy=".4em" transform="translate(-4,640)">
       0
      </text>
      <text dy=".4em" transform="translate(-4,570)">
       20
      </text>
      <text dy=".4em" transform="translate(-4,499)">
       40
      </text>
      <text dy=".4em" transform="translate(-4,429)">
       60
      </text>
      <text dy=".4em" transform="translate(-4,358)">
       80
      </text>
      <text dy=".4em" transform="translate(-4,288)">
       100
      </text>
      <text dy=".4em" transform="translate(-4,217)">
       120
      </text>
      <text dy=".4em" transform="translate(-4,147)">
       140
      </text>
      <text dy=".4em" transform="translate(-4,76)">
       160
      </text>
      <text dy=".4em" transform="translate(-4,6)">
       180
      </text>
     </g>
    </g>
   </g>
  </g>
  <g transform="translate(120,4)" font-family="Arial" font-size="40" space="preserve">
   <text fill="black" text-anchor="middle" dy=".8em" transform="translate(480)">
    Test random numbers
   </text>
  </g>
  <g transform="translate(936,52)" font-family="Arial" font-size="25" space="preserve" fill="black">
   <path d="M0,0H240V128H0Z" style="fill: white; stroke: black; stroke-width: 1;"></path>
   <text text-anchor="middle" dy=".4em" transform="translate(120,16)">
    h1f
   </text>
   <text text-anchor="start" dy=".4em" transform="translate(12,48)">
    Entries
   </text>
   <text text-anchor="end" dy=".4em" transform="translate(228,48)">
    10000
   </text>
   <text text-anchor="start" dy=".4em" transform="translate(12,80)">
    Mean
   </text>
   <text text-anchor="end" dy=".4em" transform="translate(228,80)">
    3.637
   </text>
   <text text-anchor="start" dy=".4em" transform="translate(12,112)">
    Std Dev
   </text>
   <text text-anchor="end" dy=".4em" transform="translate(228,112)">
    1.834
   </text>
   <path d="M0,32h240" style="stroke: black; stroke-width: 1;"></path>
  </g>
 </g>
</svg>

<svg xmlns="http://www.w3.org/2000/svg" viewBox="0 0 1200 800" preserveAspectRatio="none" width="1200" height="800">
 <path d="M0,0H1200V800H0Z" style="fill: white;"></path>
 <g>
  <g transform="translate(120,80)">
   <path d="M0,0H960V640H0Z" style="fill: white; stroke: black; stroke-width: 1;"></path>
   <svg x="0" y="0" overflow="hidden" width="960" height="640" viewBox="0 0 960 640">
    <g>
     <path d="M0,415h5v-4h5v39h4v-46h5v21h5v11h5v-18h5v-46h4v64h5v-60h5v14h5v56h5v-10h4v10h5v-7h5v-35h5v-53h5v120h4v-42h5v49h5v-74h5v99h5v-57h4v-35h5v85h5v-43h5v11h5v46h4v-46h5v46h5v-14h5v-29h5v21h9v46h5v-35h5v-11h5v22h4v21h5v-57h5v-14h5v25h5v-18h4v25h5v18h5v35h5v-60h5v28h4v-46h5v36h5v-53h5v10h5v57h4v-64h5v39h5v-56h5v3h5v39h4v-74h5v-25h5v-28h5v123h5v-63h9v-81h5v-28h5v35h5v-35h4v10h5v-81h5v36h10v-46h4v-32h5v11h5v-113h5v148h5v-53h4v-106h5v67h5v28h5v-141h5v117h4v-67h5v10h5v57h5v-64h5v4h4v28h5v11h5v-29h5v120h5v35h4v-112h5v17h5v-24h5v56h5v56h4v-24h5v24h5v-3h5v14h5v32h4v53h5v-29h5v-14h5v57h5v-32h4v60h5v21h5v35h5v-7h5v4h4v56h5v-35h5v28h5v32h5v-29h4v46h5v11h5v-7h5v24h5v8h4v-15h5v29h5v-29h5v36h5v-25h4v11h5v21h10v17h5v-17h4v7h5v-11h5v11h5v7h5v-14h4v-4h5v25h5v-32h5v11h5v17h4v-14h5v14h5v-3h10v-7h4v24h5v-14h5v-7h5v-7h5v4h4v7h5v-50h5v60h5v-28h5v11h4v10h10v7h5v-14h9v11h5v-18h5v7h5v21h5v-7h4v-7h5v4h5v3h5v-7h5v14h4v-3h10v-4h5v4h5v-4h4v-3h5v17h5v-3h14v7h5v-7h5v3h5v4h5v-4h4v4h5v-7h5v3h5v4h5v-4h4v-3h10v-4h14v-10h5v14h5L960,643H0Z" style="stroke-linejoin: miter; stroke: #00009a; stroke-width: 1; fill: #c08378;"></path>
    </g>
    <g>
     <path d="M9.6,569.65C11.2,569.71,16.01,569.84,19.2,570S25.62,570.35,28.8,570.58S35.23,571.08,38.4,571.38S44.84,572.03,48,572.4S54.46,573.19,57.6,573.62S64.08,574.55,67.2,575.04S73.7,576.1,76.8,576.65S83.31,577.82,86.4,578.41S92.93,579.69,96,580.31S102.54,581.68,105.6,582.33S112.15,583.76,115.2,584.43S121.75,585.89,124.8,586.57S131.35,588.05,134.4,588.72S140.94,590.17,144,590.82S150.52,592.2,153.6,592.81S160.1,594.09,163.2,594.64S169.67,595.77,172.8,596.24S179.24,597.16,182.4,597.52S188.82,598.2,192,598.43S198.4,598.83,201.6,598.87S208,598.86,211.2,598.76S217.64,598.4,220.8,598.05S227.3,597.22,230.4,596.66S237,595.32,240,594.54S246.73,592.63,249.6,591.65S256.48,589.13,259.2,587.98S266.24,584.83,268.8,583.55S275.99,579.77,278.4,578.39S285.72,574.02,288,572.58S295.69,567.78,297.6,566.21S305.71,558.44,307.2,556.85S315.43,547.21,316.8,545.63S324.98,536.24,326.4,534.65S334.5,525.71,336,524.11S343.97,515.85,345.6,514.25S353.39,506.87,355.2,505.29S362.76,498.96,364.8,497.42S372.06,492.27,374.4,490.85S381.34,486.94,384,485.74S390.64,483.04,393.6,482.2S400.01,480.48,403.2,480.33S409.6,480.06,412.8,480.15S419.38,480.93,422.4,481.66S429.25,483.67,432,484.78S439.15,488.05,441.6,489.41S449.02,493.91,451.2,495.4S458.85,501.01,460.8,502.57S468.61,509.14,470.4,510.73S478.33,518.04,480,519.64S488,527.49,489.6,529.09S497.64,537.25,499.2,538.85S507.24,547.12,508.8,548.72S516.81,556.91,518.4,558.51S526.36,566.45,528,568.05S535.88,575.6,537.6,577.2S545.38,584.26,547.2,585.85S554.86,592.35,556.8,593.92S564.33,599.82,566.4,601.35S573.79,606.63,576,608.11S583.25,612.79,585.6,614.2S592.67,618.33,595.2,619.63S601.92,623.09,604.8,624.05S611.31,625.49,614.4,626.06S620.86,627.16,624,627.61S630.43,628.43,633.6,628.76S640.02,629.35,643.2,629.58S649.61,629.98,652.8,630.13S659.2,630.38,662.4,630.47S668.8,630.6,672,630.65S678.4,630.72,681.6,630.72S688,630.72,691.2,630.72S697.6,630.69,700.8,630.68S707.2,630.65,710.4,630.64S716.8,630.61,720,630.61S726.4,630.61,729.6,630.62S736,630.64,739.2,630.67S745.6,630.73,748.8,630.78S755.2,630.88,758.4,630.95S764.8,631.1,768,631.19S774.4,631.39,777.6,631.5S784.01,631.74,787.2,631.87S793.61,632.16,796.8,632.31S803.21,632.64,806.4,632.81S812.81,633.18,816,633.37S822.41,633.77,825.6,633.97S832.02,634.4,835.2,634.63S841.62,635.08,844.8,635.31S851.22,635.79,854.4,636.03S860.82,636.52,864,636.77S870.42,637.28,873.6,637.53S880.02,638.04,883.2,638.29S889.62,638.8,892.8,639.06S899.2,639.75,902.4,639.81S908.81,639.62,912,639.44S918.42,638.96,921.6,638.72S928.02,638.25,931.2,638.03S937.61,637.58,940.8,637.36S947.21,636.94,950.4,636.74S958.41,636.26,960,636.17" style="fill: none; stroke: blue; stroke-width: 6;"></path>
    </g>
   </svg>
   <g>
    <g transform="translate(0,640)">
     <path d="M0,0h960M0,-24V0M19,-12V0M38,-12V0M58,-12V0M77,-12V0M96,-24V0M115,-12V0M134,-12V0M154,-12V0M173,-12V0M192,-24V0M211,-12V0M230,-12V0M250,-12V0M269,-12V0M288,-24V0M307,-12V0M326,-12V0M346,-12V0M365,-12V0M384,-24V0M403,-12V0M422,-12V0M442,-12V0M461,-12V0M480,-24V0M499,-12V0M518,-12V0M538,-12V0M557,-12V0M576,-24V0M595,-12V0M614,-12V0M634,-12V0M653,-12V0M672,-24V0M691,-12V0M710,-12V0M730,-12V0M749,-12V0M768,-24V0M787,-12V0M806,-12V0M826,-12V0M845,-12V0M864,-24V0M883,-12V0M902,-12V0M922,-12V0M941,-12V0M960,-24V0" style="stroke: black; stroke-width: 1;"></path>
     <g font-family="Arial" font-size="28" space="preserve" fill="black" text-anchor="middle">
      <text dy=".8em" transform="translate(0,6)">
       0
      </text>
      <text dy=".8em" transform="translate(96,6)">
       1
      </text>
      <text dy=".8em" transform="translate(192,6)">
       2
      </text>
      <text dy=".8em" transform="translate(288,6)">
       3
      </text>
      <text dy=".8em" transform="translate(384,6)">
       4
      </text>
      <text dy=".8em" transform="translate(480,6)">
       5
      </text>
      <text dy=".8em" transform="translate(576,6)">
       6
      </text>
      <text dy=".8em" transform="translate(672,6)">
       7
      </text>
      <text dy=".8em" transform="translate(768,6)">
       8
      </text>
      <text dy=".8em" transform="translate(864,6)">
       9
      </text>
      <text dy=".8em" transform="translate(960,6)">
       10
      </text>
     </g>
    </g>
    <g>
     <path d="M0,0v640M36,640H0M18,622H0M18,605H0M18,587H0M36,570H0M18,552H0M18,534H0M18,517H0M36,499H0M18,481H0M18,464H0M18,446H0M36,429H0M18,411H0M18,393H0M18,376H0M36,358H0M18,341H0M18,323H0M18,305H0M36,288H0M18,270H0M18,252H0M18,235H0M36,217H0M18,200H0M18,182H0M18,164H0M36,147H0M18,129H0M18,112H0M18,94H0M36,76H0M18,59H0M18,41H0M18,23H0M36,6H0" style="stroke: black; stroke-width: 1;"></path>
     <g font-family="Arial" font-size="28" space="preserve" fill="black" text-anchor="end">
      <text dy=".4em" transform="translate(-4,640)">
       0
      </text>
      <text dy=".4em" transform="translate(-4,570)">
       20
      </text>
      <text dy=".4em" transform="translate(-4,499)">
       40
      </text>
      <text dy=".4em" transform="translate(-4,429)">
       60
      </text>
      <text dy=".4em" transform="translate(-4,358)">
       80
      </text>
      <text dy=".4em" transform="translate(-4,288)">
       100
      </text>
      <text dy=".4em" transform="translate(-4,217)">
       120
      </text>
      <text dy=".4em" transform="translate(-4,147)">
       140
      </text>
      <text dy=".4em" transform="translate(-4,76)">
       160
      </text>
      <text dy=".4em" transform="translate(-4,6)">
       180
      </text>
     </g>
    </g>
   </g>
  </g>
  <g transform="translate(120,4)" font-family="Arial" font-size="40" space="preserve">
   <text fill="black" text-anchor="middle" dy=".8em" transform="translate(480)">
    Test random numbers
   </text>
  </g>
  <g transform="translate(936,52)" font-family="Arial" font-size="25" space="preserve" fill="black">
   <path d="M0,0H240V128H0Z" style="fill: white; stroke: black; stroke-width: 1;"></path>
   <text text-anchor="middle" dy=".4em" transform="translate(120,16)">
    h1f
   </text>
   <text text-anchor="start" dy=".4em" transform="translate(12,48)">
    Entries
   </text>
   <text text-anchor="end" dy=".4em" transform="translate(228,48)">
    10000
   </text>
   <text text-anchor="start" dy=".4em" transform="translate(12,80)">
    Mean
   </text>
   <text text-anchor="end" dy=".4em" transform="translate(228,80)">
    3.637
   </text>
   <text text-anchor="start" dy=".4em" transform="translate(12,112)">
    Std Dev
   </text>
   <text text-anchor="end" dy=".4em" transform="translate(228,112)">
    1.834
   </text>
   <path d="M0,32h240" style="stroke: black; stroke-width: 1;"></path>
  </g>
 </g>
</svg>
